X:602
T: "Jagdgebrauch"
N: Z1282
O: Europa, Mitteleuropa, Deutschland, Rhein
R: Jaeger - Lied
M: 4/4
L: 1/8
K: G
 | G3AB2c2 | d2BAG4 |
g2g2f2f2 | e2e2d4 |
g3fe2ge | d3ccBB2 |
e2d2c2B2 | A2dcBAG2 |
G2A2B2c2 | d2efg4 |
d2g2e2dc | B2A2G4

@@@ Tune index: 10360
